X: 41507
T: Uist
R: reel
M: 4/4
K: Amixolydian
~A2 e>A ~A2 a>e|f>gf>g B>cd>B|~A2 e>A ~A2 a>e|f>gB>d e>AA>:|
a>ee>a ~c2 a>e|f>gf>g B>cd>B|1 a>ee>a ~c2 a>e|
f>gB>d e>A>A:|2 c>Ae>A ~e2 f>g|B>GB>d e>AA>||

